accounts/calendar.svg

<svg xmlns="http://www.w3.org/2000/svg" viewBox="0 0 16 16"><defs><style>.cls-1{fill:#010101;fill-rule:evenodd}</style></defs><title>calendar</title><path class="cls-1" d="M15.171 2.527V0h-5.065v2.527H5.927V0H.829v2.527H0V16h16V2.527zm-.859 4.819h-2.884V4.235h2.883zm-2.883.388h2.883v3.1h-2.884zM11.8 1.68h1.682v1.708H11.8zm-.76 2.555v3.111H8.151V4.235zm-6.555 6.6H1.693v-3.1h2.793zm.388-3.1h2.89v3.1H4.874zm2.889 3.493v3.126H4.874v-3.127zm.388-3.493h2.89v3.1H8.151zm2.889 3.493v3.126H8.151v-3.127zM7.763 4.235v3.111H4.874V4.235zM2.551 1.68h1.654v1.708H2.551zm1.935 2.555v3.111H1.693V4.235zm-2.793 6.992h2.793v3.126H1.693zm9.735 3.126v-3.126h2.883v3.126z" id="Layer_1" data-name="Layer 1"/></svg>

<svg xmlns="http://www.w3.org/2000/svg" viewBox="0 0 16 16"><defs><style>.cls-1{fill:#010101;fill-rule:evenodd;}</style></defs><title>calendar</title><g id="Layer_1" data-name="Layer 1"><path class="cls-1" d="M15.171,2.527V0H10.106V2.527H5.927V0H.829V2.527H0V16H16V2.527Zm-.859,4.819H11.428V4.235h2.883Zm-2.883.388h2.883v3.1H11.428ZM11.8,1.68h1.682V3.388H11.8ZM11.04,4.235V7.346H8.151V4.235Zm-6.555,6.6H1.693v-3.1H4.486Zm.388-3.1H7.763v3.1H4.874Zm2.889,3.493v3.126H4.874V11.227Zm.388-3.493H11.04v3.1H8.151Zm2.889,3.493v3.126H8.151V11.227ZM7.763,4.235V7.346H4.874V4.235ZM2.551,1.68H4.205V3.388H2.551ZM4.486,4.235V7.346H1.693V4.235ZM1.693,11.227H4.486v3.126H1.693Zm9.735,3.126V11.227h2.883v3.126Z"/></g></svg>
